_includes/icons/ios-archive.svg

<svg fill="#666" height="50" viewBox="0 0 50 50" width="50" xmlns="http://www.w3.org/2000/svg"><path d="m7 3v44h36v-44zm2 2h13v19.28125c-.59375.351563-1 .988281-1 1.71875v2c0 .832031.527344 1.554688 1.261719 1.851563-.144531.558593-.242188.921875-.484375 1.945312-.1875.800781-.378906 1.640625-.523438 2.371094-.144531.726562-.253906 1.285156-.253906 1.792969 0 2.210937 1.796875 4.039062 4 4.039062s4-1.828125 4-4.039062c0-.507813-.109375-1.066407-.253906-1.792969-.144531-.730469-.335938-1.570313-.523438-2.371094-.242187-1.023437-.339843-1.386719-.484375-1.945312.734375-.296875 1.261719-1.019532 1.261719-1.851563v-2c0-.730469-.40625-1.367187-1-1.71875v-19.28125h13v40h-32zm15 0h2v4h-1v2h1v4h-1v2h1v4h-1v2h1v1h-2v-4h1v-2h-1v-4h1v-2h-1v-4h1v-2h-1zm-1 21h4v2h-4zm1.28125 4h1.4375c.121094.472656.28125 1.070313.558594 2.253906.1875.789063.371094 1.609375.507812 2.300782.136719.691406.214844 1.308593.214844 1.40625 0 1.132812-.902344 2.039062-2 2.039062s-2-.90625-2-2.039062c0-.097657.078125-.714844.214844-1.40625.136719-.691407.320312-1.511719.507812-2.300782.277344-1.183593.4375-1.78125.558594-2.253906zm.71875 5c-.542969 0-.988281.449219-.984375 1-.003906.550781.441406 1 .984375 1s.988281-.449219.984375-1c.003906-.550781-.441406-1-.984375-1z"/></svg>

<svg xmlns="http://www.w3.org/2000/svg" viewBox="0 0 50 50" width="50" height="50" fill="#666"><path d="M 7 3 L 7 47 L 43 47 L 43 3 Z M 9 5 L 22 5 L 22 24.28125 C 21.40625 24.632813 21 25.269531 21 26 L 21 28 C 21 28.832031 21.527344 29.554688 22.261719 29.851563 C 22.117188 30.410156 22.019531 30.773438 21.777344 31.796875 C 21.589844 32.597656 21.398438 33.4375 21.253906 34.167969 C 21.109375 34.894531 21 35.453125 21 35.960938 C 21 38.171875 22.796875 40 25 40 C 27.203125 40 29 38.171875 29 35.960938 C 29 35.453125 28.890625 34.894531 28.746094 34.167969 C 28.601563 33.4375 28.410156 32.597656 28.222656 31.796875 C 27.980469 30.773438 27.882813 30.410156 27.738281 29.851563 C 28.472656 29.554688 29 28.832031 29 28 L 29 26 C 29 25.269531 28.59375 24.632813 28 24.28125 L 28 5 L 41 5 L 41 45 L 9 45 Z M 24 5 L 26 5 L 26 9 L 25 9 L 25 11 L 26 11 L 26 15 L 25 15 L 25 17 L 26 17 L 26 21 L 25 21 L 25 23 L 26 23 L 26 24 L 24 24 L 24 20 L 25 20 L 25 18 L 24 18 L 24 14 L 25 14 L 25 12 L 24 12 L 24 8 L 25 8 L 25 6 L 24 6 Z M 23 26 L 27 26 L 27 28 L 23 28 Z M 24.28125 30 L 25.71875 30 C 25.839844 30.472656 26 31.070313 26.277344 32.253906 C 26.464844 33.042969 26.648438 33.863281 26.785156 34.554688 C 26.921875 35.246094 27 35.863281 27 35.960938 C 27 37.09375 26.097656 38 25 38 C 23.902344 38 23 37.09375 23 35.960938 C 23 35.863281 23.078125 35.246094 23.214844 34.554688 C 23.351563 33.863281 23.535156 33.042969 23.722656 32.253906 C 24 31.070313 24.160156 30.472656 24.28125 30 Z M 25 35 C 24.457031 35 24.011719 35.449219 24.015625 36 C 24.011719 36.550781 24.457031 37 25 37 C 25.542969 37 25.988281 36.550781 25.984375 36 C 25.988281 35.449219 25.542969 35 25 35 Z"/></svg>
